X: 5595
T: Busy Gardener, The
R: reel
M: 4/4
K: Edorian
|:"Em" E2 GA BAGA|E2 GA BAGA|"D" D2 FA BAFA|D2 FA dAFA|
"Em" E2 GA BAGA|E2 GA BAdA|"Bm7" fedB AFEF|"G" GEBA "D"GEEF:|
|:"D"fdde fagf|"A" eccd egfe|"D" fdde fagf|"A" egfe "D" defd:|
|:"D" f3 d fagf|"A" e3 c egfe|"Bm" f2 de fagf|"A" ecde "G" d4:|

